X:1
T:Stowell, 664.66.64
T:Stowell, 664.66.64
T:Isaac Hickman Meredith (1872-1962)
T:Public Domain Courtesy of the Cyber Hymnal™
C:Isaac Hickman Meredith (1872-1962)
Z:Public Domain
Z:Courtesy of the Cyber Hymnal™
%%score ( 1 2 ) ( 3 4 )
L:1/8
M:4/4
K:C
V:1 treble 
V:2 treble 
V:3 bass 
V:4 bass 
V:1
 C4 E2 [DG]2 | [Ec]3 [Ec] [Ec]4 | E4 [EA]2 [Ec]2 | [Ee]3 [^Ge] [Ae]2 [Ec]2 | [EB]4 [^DB]4 | E8 | %6
 [FG]4 [FA]2 [FB]2 | [Ec]3 [Ec] [Ec]4 | [GA]4 [GB]2 [G^c]2 | [Fd]3 [Gd] [Fd]4 | [FG]4 [FB]2 [Fd]2 | %11
 [Ee]3 [Ed] [Ec]2 [Fc]2 | [Gc]4 [FB]4 | [Ec]8 |] %14
V:2
 C4 E2 x2 | x8 | E4 x4 | x8 | x8 | E8 | x8 | x8 | x8 | x8 | x8 | x8 | x8 | x8 |] %14
V:3
 C,4 C2 [B,D]2 | [A,C]3 [A,C] [A,C]4 | E,4 C2 [A,C]2 | [^G,B,]3 [E,D] [A,C]2 [A,,A,]2 | %4
 [B,,G,]4 (^F,2 A,2) | [E,G,]8 | [D,B,]4 [G,C]2 [G,D]2 | [C,C]3 [C,A,] [C,G,]4 | %8
 [A,^C]4 [A,D]2 [A,E]2 | [D,D]3 [D,_B,] [D,A,]4 | [G,B,]4 [G,D]2 [G,B,]2 | %11
 [^G,B,]3 [G,B,] [A,C]2 [_A,D]2 | [G,E]4 [G,D]4 | [C,C]8 |] %14
V:4
 C,4 C2 x2 | x8 | E,4 x4 | x8 | x4 B,,4 | x8 | x8 | x8 | x8 | x8 | x8 | x8 | x8 | x8 |] %14

